; generated by PrusaSlicer 2.6.0+win64 on 2023-07-20 at 12:49:31 UTC


;
;
; 

; external perimeters extrusion width = 0.45mm
; perimeters extrusion width = 0.45mm
; infill extrusion width = 0.45mm
; solid infill extrusion width = 0.45mm
; top infill extrusion width = 0.40mm
; first layer extrusion width = 0.42mm

M73 P0 R131
M73 Q0 S131
M201 X1000 Y1000 Z200 E5000 ; sets maximum accelerations, mm/sec^2
M203 X200 Y200 Z12 E120 ; sets maximum feedrates, mm / sec
M204 S1250 T1250 ; sets acceleration (S) and retract acceleration (R), mm/sec^2
M205 X8.00 Y8.00 Z0.40 E4.50 ; sets the jerk limits, mm/sec
M205 S0 T0 ; sets the minimum extruding and travel feed rate, mm/sec
;TYPE:Custom
M862.3 P "MK3S" ; printer model check
M862.1 P0.4 ; nozzle diameter check
M115 U3.12.2 ; tell printer latest fw version
G90 ; use absolute coordinates
M83 ; extruder relative mode
M104 S235 ; set extruder temp
M140 S60 ; set bed temp
M190 S60 ; wait for bed temp
M109 S235 ; wait for extruder temp
G28 W ; home all without mesh bed level
G80 ; mesh bed leveling

G1 Z0.2 F720
G1 Y-3 F1000 ; go outside print area
G92 E0
G1 X60 E9 F1000 ; intro line
G1 X100 E12.5 F1000 ; intro line

G92 E0
M221 S95

; Don't change E values below. Excessive value can damage the printer.
M907 E430 ; set extruder motor current
G21 ; set units to millimeters
G90 ; use absolute coordinates
M83 ; use relative distances for extrusion
M900 K0.05 ; Filament gcode LA 1.5
M900 K30 ; Filament gcode LA 1.0
M107
;LAYER_CHANGE
;Z:0.2
;HEIGHT:0.2
;BEFORE_LAYER_CHANGE
G92 E0.0
;0.2


G1 E-.8 F2100
M73 P0 R130
G1 Z.4 F720
;AFTER_LAYER_CHANGE
;0.2
G1 X103.74 Y89.654 F10800
G1 Z.2 F720
G1 E.8 F2100
M204 S800
;TYPE:Skirt/Brim
;WIDTH:0.42
G1 F1200
G1 X104.249 Y89.178 E.02185
G1 X105.141 Y88.736 E.03121
G1 X106.247 Y88.573 E.03505
G1 X147.49 Y88.543 E1.29315
G1 X148.166 Y88.591 E.02125
G1 X148.794 Y88.747 E.02029
G1 X149.735 Y89.283 E.03396
G1 X150.383 Y90.086 E.03235
G1 X150.633 Y90.746 E.02213
G1 X150.706 Y91.26 E.01628
G1 X150.722 Y118.681 E.85977
G1 X150.603 Y119.404 E.02297
G1 X150.4 Y119.895 E.01666
G1 X150.081 Y120.368 E.01789
G1 X149.568 Y120.844 E.02194
G1 X148.646 Y121.29 E.03211
G1 X147.573 Y121.442 E.03398
G1 X106.276 Y121.457 E1.29484
G1 X105.467 Y121.373 E.0255
G1 X104.688 Y121.108 E.0258
G1 X104.099 Y120.723 E.02206
G1 X103.608 Y120.182 E.02291
G1 X103.243 Y119.431 E.02618
G1 X103.118 Y118.604 E.02622
G1 X103.103 Y91.431 E.85199
G1 X103.171 Y90.813 E.01949
G1 X103.409 Y90.156 E.02191
G1 X103.707 Y89.704 E.01698
M204 S1000
; printing object SmartTemperatureTower_PLA_Plus_195-235.stl id:0 copy 0
;WIPE_START
G1 F8640
G1 X104.249 Y89.178 E-.1744
G1 X105.141 Y88.736 E-.22986
G1 X106.247 Y88.573 E-.25814
G1 X106.843 Y88.573 E-.1376
;WIPE_END
G1 Z.6 F720
G1 X130.028 Y104.29 F10800
G1 Z.2 F720
G1 E.8 F2100
M204 S800
;TYPE:External perimeter
;WIDTH:0.422854
G1 F1200
G1 X130.03 Y104.257 E.00104
;WIDTH:0.42
G1 X130.03 Y103.255 E.03142
M204 S1000
;WIPE_START
G1 F8640
G1 X130.03 Y104.257 E-.23136
G1 X130.028 Y104.29 E-.00763
;WIPE_END
G1 E-.56101 F2100
G1 Z.6 F720
G1 X132.025 Y105.55 F10800
G1 Z.2 F720
G1 E.8 F2100
M204 S800
;WIDTH:0.45718
G1 F1200
G1 X132.287 Y105.511 E.00912
;WIDTH:0.427039
G1 X132.548 Y105.472 E.00843
;WIDTH:0.409284
G1 X132.82 Y105.375 E.0088
M204 S1000
;WIPE_START
G1 F8640
G1 X132.548 Y105.472 E-.06668
G1 X132.287 Y105.511 E-.06093
G1 X132.025 Y105.55 E-.06116
;WIPE_END
G1 E-.61123 F2100
G1 Z.6 F720
G1 X133.56 Y104.489 F10800
G1 Z.2 F720
G1 E.8 F2100
M204 S800
;WIDTH:0.389654
G1 F1200
G1 X133.549 Y103.877 E.01765
M204 S1000
;WIPE_START
G1 F8640
G1 X133.56 Y104.489 E-.14134
;WIPE_END
G1 E-.65866 F2100
G1 Z.6 F720
G1 X135.443 Y105.566 F10800
G1 Z.2 F720
G1 E.8 F2100
M204 S800
;WIDTH:0.443538
G1 F1200
G1 X136.052 Y105.476 E.02051
;WIDTH:0.40942
G1 X136.32 Y105.377 E.00871
M204 S1000
;WIPE_START
G1 F8640
G1 X136.052 Y105.476 E-.06597
G1 X135.443 Y105.566 E-.14215
;WIPE_END
G1 E-.59188 F2100
G1 Z.6 F720
G1 X137.09 Y104.604 F10800
G1 Z.2 F720
G1 E.8 F2100
M204 S800
;WIDTH:0.454538
G1 F1200
G1 X137.096 Y103.941 E.02269
M204 S1000
;WIPE_START
G1 F8640
G1 X137.09 Y104.604 E-.15309
;WIPE_END
G1 E-.64691 F2100
G1 Z.6 F720
G1 X140.097 Y103.259 F10800
G1 Z.2 F720
G1 E.8 F2100
M204 S800
;WIDTH:0.430694
G1 F1200
G1 X139.714 Y103.109 E.01326
;WIDTH:0.446696
G1 X139.291 Y103.053 E.01433
;WIDTH:0.486444
G1 X138.97 Y103.104 E.01199
M204 S1000
;WIPE_START
G1 F8640
G1 X139.291 Y103.053 E-.07505
G1 X139.714 Y103.109 E-.09852
G1 X140.097 Y103.259 E-.09498
;WIPE_END
G1 E-.53145 F2100
G1 Z.6 F720
G1 X122.689 Y104.285 F10800
G1 Z.2 F720
G1 E.8 F2100
M204 S800
;WIDTH:0.473798
G1 F1200
G1 X122.665 Y105.05 E.02742
;WIDTH:0.467854
G1 X122.686 Y105.506 E.01613
M204 S1000
;WIPE_START
G1 F8640
G1 X122.665 Y105.05 E-.1054
G1 X122.689 Y104.285 E-.17673
;WIPE_END
G1 E-.51787 F2100
G1 Z.6 F720
G1 X120.805 Y105.658 F10800
G1 Z.2 F720
G1 E.8 F2100
M204 S800
;WIDTH:0.67776
G1 F1200
G1 X120.824 Y105.378 E.01481
;WIDTH:0.640124
G1 X120.842 Y105.098 E.01393
;WIDTH:0.626874
G1 X120.83 Y104.399 E.03395
G1 X120.796 Y104.353 E.00278
;WIDTH:0.586793
G1 X120.763 Y104.307 E.00256
;WIDTH:0.546711
G1 X120.729 Y104.262 E.00236
;WIDTH:0.50663
G1 X120.695 Y104.216 E.00221
;WIDTH:0.466548
G1 X120.661 Y104.17 E.00201
;WIDTH:0.4322
G1 X120.648 Y104.125 E.00152
M204 S1000
;WIPE_START
G1 F8640
G1 X120.661 Y104.17 E-.01082
G1 X120.695 Y104.216 E-.01321
G1 X120.729 Y104.262 E-.01321
G1 X120.763 Y104.307 E-.01302
G1 X120.796 Y104.353 E-.01307
G1 X120.83 Y104.399 E-.01321
G1 X120.842 Y105.098 E-.16142
G1 X120.824 Y105.378 E-.06479
G1 X120.805 Y105.658 E-.0648
;WIPE_END
G1 E-.43245 F2100
G1 Z.6 F720
G1 X118.735 Y104.327 F10800
G1 Z.2 F720
G1 E.8 F2100
M204 S800
;WIDTH:0.517644
G1 F1200
G1 X118.441 Y104.332 E.01161
;WIDTH:0.507536
G1 X118.256 Y104.362 E.00724
;WIDTH:0.465998
G1 X118.071 Y104.393 E.0066
;WIDTH:0.424459
G1 X117.885 Y104.423 E.00598
;WIDTH:0.38292
G1 X117.84 Y104.427 E.00128
M204 S1000
;WIPE_START
G1 F8640
G1 X117.885 Y104.423 E-.01043
G1 X118.071 Y104.393 E-.0435
G1 X118.256 Y104.362 E-.04331
G1 X118.441 Y104.332 E-.04328
G1 X118.735 Y104.327 E-.0679
;WIPE_END
G1 E-.59158 F2100
G1 Z.6 F720
G1 X117.275 Y105.408 F10800
G1 Z.2 F720
G1 E.8 F2100
M204 S800
G1 F1200
G1 X117.283 Y104.694 E.02019
M204 S1000
;WIPE_START
G1 F8640
G1 X117.283 Y104.722 E-.00647
G1 X117.275 Y105.408 E-.15841
;WIPE_END
G1 E-.63512 F2100
G1 Z.6 F720
G1 X115.303 Y104.327 F10800
G1 Z.2 F720
G1 E.8 F2100
M204 S800
;WIDTH:0.517644
G1 F1200
G1 X115.009 Y104.332 E.01161
;WIDTH:0.507536
G1 X114.824 Y104.362 E.00724
;WIDTH:0.465998
G1 X114.639 Y104.393 E.0066
;WIDTH:0.424459
G1 X114.453 Y104.423 E.00598
;WIDTH:0.38292
G1 X114.408 Y104.427 E.00128
M204 S1000
;WIPE_START
G1 F8640
G1 X114.453 Y104.423 E-.01043
G1 X114.639 Y104.393 E-.0435
G1 X114.824 Y104.362 E-.04331
G1 X115.009 Y104.332 E-.04328
G1 X115.303 Y104.327 E-.0679
;WIPE_END
G1 E-.59158 F2100
G1 Z.6 F720
G1 X141.181 Y101.981 F10800
G1 Z.2 F720
G1 E.8 F2100
M204 S800
;TYPE:Perimeter
;WIDTH:0.419999
G1 F1200
G1 X141.273 Y102.241 E.00865
G1 X141.213 Y102.524 E.00907
G1 X140.834 Y103.002 E.01913
G1 X140.683 Y103.264 E.00948
G1 X141.059 Y103.659 E.0171
G1 X141.179 Y103.851 E.0071
G1 X141.376 Y104.399 E.01826
;WIDTH:0.424523
G1 X141.418 Y105.043 E.02048
G1 X141.379 Y105.584 E.01721
;WIDTH:0.419999
G1 X141.185 Y106.197 E.02016
G1 X140.786 Y106.791 E.02244
G1 X140.342 Y107.158 E.01806
G1 X139.816 Y107.381 E.01791
G1 X139.219 Y107.444 E.01882
G1 X138.698 Y107.359 E.01655
G1 X138.546 Y107.308 E.00503
G1 X137.979 Y107.28 E.0178
G1 X137.65 Y107.242 E.01038
G1 X137.143 Y107.103 E.01648
G1 X136.913 Y106.977 E.00822
G1 X136.843 Y106.899 E.00329
G1 X136.627 Y107.081 E.00886
G1 X136.157 Y107.299 E.01624
G1 X135.863 Y107.384 E.0096
G1 X135.338 Y107.444 E.01657
G1 X134.724 Y107.401 E.0193
G1 X134.326 Y107.278 E.01306
G1 X133.892 Y107.002 E.01613
G1 X133.622 Y106.711 E.01245
G1 X133.245 Y107.046 E.01581
G1 X133.078 Y107.149 E.00615
G1 X132.608 Y107.336 E.01586
G1 X131.834 Y107.444 E.0245
G1 X131.218 Y107.399 E.01937
G1 X130.739 Y107.237 E.01585
G1 X130.46 Y107.035 E.0108
G1 X130.514 Y107.62 E.01842
G1 X130.482 Y107.865 E.00775
G1 X130.275 Y108.136 E.01069
G1 X129.961 Y108.237 E.01034
G1 X128.845 Y108.258 E.035
G1 X126.394 Y108.24 E.07685
G1 X126.071 Y108.136 E.01064
G1 X125.887 Y107.916 E.00899
G1 X125.835 Y107.625 E.00927
G1 X125.887 Y107.04 E.01841
G1 X125.411 Y107.313 E.01721
G1 X124.672 Y107.438 E.0235
G1 X124.229 Y107.408 E.01392
G1 X123.673 Y107.304 E.01774
G1 X123.286 Y107.095 E.01379
G1 X123.168 Y106.992 E.00491
G1 X123.223 Y107.599 E.01911
G1 X123.215 Y108.078 E.01502
G1 X123.088 Y108.31 E.00829
G1 X122.791 Y108.481 E.01075
G1 X122.67 Y108.494 E.00382
G1 X120.925 Y108.496 E.05471
G1 X120.548 Y108.353 E.01264
G1 X120.387 Y108.107 E.00922
G1 X120.365 Y107.649 E.01438
G1 X120.381 Y107.138 E.01603
G1 X120.411 Y106.936 E.0064
G1 X120.146 Y107.138 E.01045
G1 X119.678 Y107.347 E.01607
G1 X119.05 Y107.442 E.01991
G1 X118.487 Y107.411 E.01768
G1 X117.983 Y107.266 E.01644
G1 X117.599 Y107.001 E.01463
G1 X117.293 Y106.679 E.01393
G1 X117.24 Y106.575 E.00366
G1 X116.876 Y107.007 E.01771
G1 X116.613 Y107.181 E.00989
G1 X116.221 Y107.349 E.01337
G1 X115.621 Y107.442 E.01904
G1 X115.097 Y107.419 E.01645
G1 X114.601 Y107.306 E.01595
G1 X114.2 Y107.096 E.01419
G1 X113.796 Y106.794 E.01582
G1 X113.468 Y106.257 E.01973
G1 X113.299 Y105.786 E.01569
G1 X113.237 Y105.186 E.01891
G1 X113.328 Y104.556 E.01996
G1 X113.443 Y104.301 E.00877
G1 X113.652 Y104.131 E.00845
G1 X113.357 Y103.742 E.01531
G1 X113.353 Y103.291 E.01414
G1 X113.51 Y103.079 E.00827
G1 X113.826 Y102.826 E.01269
G1 X114.277 Y102.583 E.01606
G1 X114.877 Y102.415 E.01954
G1 X115.517 Y102.372 E.02011
G1 X116.026 Y102.432 E.01607
G1 X116.65 Y102.712 E.02144
G1 X116.956 Y102.964 E.01243
G1 X117.077 Y103.116 E.00609
G1 X117.448 Y102.778 E.01574
G1 X117.897 Y102.542 E.0159
G1 X118.271 Y102.427 E.01227
G1 X118.722 Y102.373 E.01424
G1 X119.226 Y102.397 E.01582
G1 X119.631 Y102.504 E.01313
G1 X120.088 Y102.748 E.01624
G1 X120.311 Y102.953 E.0095
G1 X120.394 Y102.834 E.00455
G1 X120.75 Y102.541 E.01446
G1 X121.023 Y102.458 E.00895
G1 X121.516 Y102.388 E.01561
G1 X122.037 Y102.502 E.01672
G1 X122.257 Y102.609 E.00767
G1 X122.607 Y102.887 E.01401
G1 X122.797 Y103.193 E.01129
G1 X123.101 Y102.844 E.01451
G1 X123.55 Y102.551 E.01681
G1 X123.948 Y102.427 E.01307
G1 X124.498 Y102.368 E.01734
G1 X125.074 Y102.416 E.01812
G1 X125.671 Y102.642 E.02001
G1 X126.036 Y102.935 E.01468
G1 X126.382 Y102.709 E.01296
G1 X126.917 Y102.559 E.01742
G1 X127.946 Y102.485 E.03235
G1 X128.893 Y102.495 E.02969
G1 X129.424 Y102.555 E.01676
G1 X129.995 Y102.711 E.01856
G1 X130.552 Y102.573 E.01799
G1 X132.319 Y102.392 E.05569
G1 X132.708 Y102.478 E.01249
G1 X133.116 Y102.689 E.0144
G1 X133.368 Y102.921 E.01074
G1 X133.479 Y102.744 E.00655
G1 X134.056 Y102.573 E.01887
G1 X135.082 Y102.47 E.03233
G1 X135.629 Y102.381 E.01738
G1 X136.011 Y102.426 E.01206
G1 X136.449 Y102.555 E.01432
G1 X136.762 Y102.756 E.01166
G1 X136.893 Y102.356 E.0132
G1 X137.196 Y101.879 E.01772
G1 X137.375 Y101.702 E.00789
G1 X137.8 Y101.45 E.01549
G1 X138.306 Y101.255 E.017
G1 X138.896 Y101.176 E.01866
G1 X139.541 Y101.191 E.02023
G1 X140.047 Y101.29 E.01617
G1 X140.588 Y101.511 E.01832
G1 X141.021 Y101.799 E.01631
G1 X141.156 Y101.928 E.00585
M204 S1000
G1 X140.861 Y102.159 F10800
M204 S800
;TYPE:External perimeter
G1 F1200
G1 X140.894 Y102.303 E.00463
G1 X140.544 Y102.76 E.01805
G1 X140.303 Y103.17 E.01491
;WIDTH:0.429206
G1 X140.142 Y103.287 E.00639
G1 X140.575 Y103.698 E.01918
;WIDTH:0.419999
G1 X140.826 Y103.983 E.01191
G1 X141.007 Y104.474 E.01641
G1 X141.039 Y105.062 E.01846
G1 X141.006 Y105.517 E.0143
G1 X140.826 Y106.082 E.01859
G1 X140.482 Y106.568 E.01867
G1 X140.155 Y106.83 E.01314
G1 X139.728 Y107.013 E.01457
G1 X139.268 Y107.07 E.01453
G1 X138.748 Y106.977 E.01656
G1 X138.55 Y106.874 E.007
G1 X138.418 Y106.941 E.00464
G1 X137.782 Y106.884 E.02002
G1 X137.243 Y106.74 E.01749
G1 X137.138 Y106.666 E.00403
;WIDTH:0.453027
G1 X137.104 Y106.612 E.00218
;WIDTH:0.486054
G1 X137.071 Y106.557 E.00236
;WIDTH:0.532872
G1 X137.047 Y106.445 E.00467
;WIDTH:0.57969
G1 X137.024 Y106.333 E.0051
G1 X136.973 Y106.378 E.00304
;WIDTH:0.543596
G1 X136.921 Y106.424 E.00289
;WIDTH:0.507502
G1 X136.869 Y106.47 E.00268
;WIDTH:0.471408
G1 X136.73 Y106.544 E.00561
;WIDTH:0.445704
G1 X136.59 Y106.619 E.00532
;WIDTH:0.419999
G1 X136.449 Y106.748 E.00599
G1 X135.947 Y106.971 E.01722
G1 X135.296 Y107.069 E.02064
G1 X134.758 Y107.025 E.01692
G1 X134.398 Y106.885 E.01211
G1 X134.167 Y106.743 E.0085
G1 X133.902 Y106.452 E.01234
G1 X133.637 Y105.912 E.01886
;WIDTH:0.426633
G1 X133.574 Y105.657 E.00838
;WIDTH:0.470455
G1 X133.511 Y105.402 E.00934
G1 X133.509 Y104.875 E.01873
;WIDTH:0.468981
G1 X133.509 Y104.838 E.00131
;WIDTH:0.471255
G1 X133.452 Y104.959 E.00476
G1 X133.119 Y105.28 E.01647
;WIDTH:0.462533
G1 X132.97 Y105.328 E.00546
;WIDTH:0.435909
G1 X132.82 Y105.375 E.00514
;WIDTH:0.437157
G1 X132.943 Y105.413 E.00422
;WIDTH:0.46503
G1 X133.066 Y105.452 E.00453
G1 X133.176 Y105.707 E.00975
;WIDTH:0.428715
G1 X133.286 Y105.961 E.00888
;WIDTH:0.392399
G1 X133.417 Y106.229 E.00867
;WIDTH:0.419999
G1 X133.379 Y106.422 E.00617
G1 X132.994 Y106.765 E.01617
G1 X132.469 Y106.986 E.01786
G1 X131.792 Y107.07 E.02139
G1 X131.252 Y107.024 E.01699
G1 X130.817 Y106.849 E.0147
G1 X130.438 Y106.505 E.01605
;WIDTH:0.419523
G1 X130.077 Y105.952 E.02068
;WIDTH:0.419999
G1 X129.964 Y105.491 E.01488
G1 X130.03 Y104.939 E.01743
;WIDTH:0.422134
G1 X130.029 Y104.388 E.01737
;WIDTH:0.422854
G1 X130.028 Y104.29 E.0031
G1 X129.703 Y104.735 E.01741
;WIDTH:0.419999
G1 X129.449 Y105.189 E.01631
G1 X129.125 Y105.608 E.01661
G1 X128.751 Y105.936 E.0156
G1 X128.455 Y106.324 E.0153
G1 X129.303 Y106.283 E.02662
G1 X129.818 Y106.321 E.01619
;WIDTH:0.418183
G1 X129.958 Y106.463 E.00622
;WIDTH:0.419999
G1 X130.073 Y106.959 E.01596
G1 X130.138 Y107.655 E.02192
G1 X130.119 Y107.757 E.00325
G1 X129.978 Y107.859 E.00546
G1 X128.848 Y107.881 E.03544
G1 X126.397 Y107.863 E.07685
G1 X126.289 Y107.828 E.00356
G1 X126.212 Y107.704 E.00458
G1 X126.252 Y107.194 E.01604
;WIDTH:0.421332
G1 X126.357 Y106.602 E.01892
G1 X126.405 Y106.447 E.00511
;WIDTH:0.419474
G1 X126.679 Y106.027 E.0157
;WIDTH:0.419999
G1 X127.027 Y105.513 E.01946
G1 X127.276 Y105.205 E.01242
G1 X127.65 Y104.877 E.0156
G1 X127.937 Y104.494 E.01501
G1 X126.528 Y104.48 E.04418
;WIDTH:0.409371
G1 X126.377 Y104.343 E.00621
;WIDTH:0.419999
G1 X126.471 Y104.979 E.02016
G1 X126.49 Y105.265 E.00899
G1 X126.392 Y105.757 E.01573
;WIDTH:0.419474
G1 X126.09 Y106.241 E.01786
;WIDTH:0.419999
G1 X125.721 Y106.681 E.01801
G1 X125.619 Y106.777 E.00439
G1 X125.224 Y106.976 E.01387
G1 X124.585 Y107.069 E.02025
G1 X123.896 Y106.982 E.02177
G1 X123.534 Y106.812 E.01254
G1 X123.229 Y106.536 E.0129
G1 X122.821 Y105.871 E.02446
;WIDTH:0.465062
G1 X122.688 Y105.529 E.01288
G1 X122.662 Y106.344 E.02862
;WIDTH:0.419999
G1 X122.836 Y107.326 E.03127
G1 X122.858 Y107.922 E.0187
G1 X122.809 Y108.056 E.00447
G1 X122.67 Y108.117 E.00476
G1 X120.924 Y108.119 E.05474
G1 X120.799 Y108.072 E.00419
G1 X120.736 Y107.926 E.00499
G1 X120.751 Y107.219 E.02217
G1 X120.901 Y106.219 E.03171
;WIDTH:0.463954
G1 X120.886 Y106.118 E.00357
;WIDTH:0.507908
G1 X120.87 Y106.018 E.00392
;WIDTH:0.551862
G1 X120.855 Y105.918 E.00428
;WIDTH:0.595816
G1 X120.839 Y105.817 E.0047
;WIDTH:0.63977
G1 X120.824 Y105.717 E.00502
;WIDTH:0.67776
G1 X120.805 Y105.658 E.00327
G1 X120.754 Y105.737 E.00496
;WIDTH:0.6348
G1 X120.702 Y105.816 E.00465
;WIDTH:0.59184
G1 X120.651 Y105.895 E.00429
;WIDTH:0.54888
G1 X120.6 Y105.974 E.00396
;WIDTH:0.50592
G1 X120.548 Y106.053 E.00364
;WIDTH:0.46296
G1 X120.497 Y106.131 E.00325
;WIDTH:0.419999
G1 X120.419 Y106.322 E.00647
G1 X120.193 Y106.628 E.01193
G1 X119.979 Y106.8 E.00861
G1 X119.596 Y106.979 E.01326
G1 X118.994 Y107.069 E.01909
G1 X118.487 Y107.029 E.01595
G1 X118.098 Y106.895 E.0129
G1 X117.872 Y106.741 E.00857
G1 X117.543 Y106.361 E.01576
G1 X117.486 Y106.134 E.00734
G1 X117.328 Y105.755 E.01287
;WIDTH:0.416582
